src/app/assets/icons/verified-user.svg

<svg width="25" height="25" viewBox="0 0 25 25" fill="none" xmlns="http://www.w3.org/2000/svg">
<path d="M11.5047 15.798L17.1547 10.148L15.7297 8.72305L11.5047 12.948L9.40469 10.848L7.97969 12.273L11.5047 15.798ZM12.5547 22.248C10.238 21.6647 8.32552 20.3355 6.81719 18.2605C5.30885 16.1855 4.55469 13.8814 4.55469 11.348V5.24805L12.5547 2.24805L20.5547 5.24805V11.348C20.5547 13.8814 19.8005 16.1855 18.2922 18.2605C16.7839 20.3355 14.8714 21.6647 12.5547 22.248ZM12.5547 20.148C14.288 19.598 15.7214 18.498 16.8547 16.848C17.988 15.198 18.5547 13.3647 18.5547 11.348V6.62305L12.5547 4.37305L6.55469 6.62305V11.348C6.55469 13.3647 7.12135 15.198 8.25469 16.848C9.38802 18.498 10.8214 19.598 12.5547 20.148Z" fill="currentColor"/>
</svg>

<svg xmlns="http://www.w3.org/2000/svg" width="25" height="25" fill="none"><path fill="currentColor" d="m11.505 15.798 5.65-5.65-1.425-1.425-4.225 4.225-2.1-2.1-1.425 1.425zm1.05 6.45q-3.476-.875-5.738-3.988t-2.262-6.912v-6.1l8-3 8 3v6.1q0 3.8-2.263 6.913-2.262 3.112-5.737 3.987m0-2.1q2.6-.825 4.3-3.3t1.7-5.5V6.623l-6-2.25-6 2.25v4.725q0 3.025 1.7 5.5t4.3 3.3"/></svg>
